X:24
T: ICH HAB MIR MEIN KINDEL FEIN SCHLAFEN GELEGT
N: K0097A
O: Europa, Mitteleuropa, Deutschland, Schlesien
R: Kinder -, Wiegen - Lied
M: 3/4
L: 1/8
K: G
B2 | d2B2B2 | B3AA2 | c2A2A2 | B4
B2 | d2G2G2 | B3AA2 | c2F2F2 | G4
D2 | D2G2G2 | F2A2A2 | A3ce2 | d4
B2 | A2A2BA | G2G2B2 | A3GF2 | G4

@@@ Tune index: 7361
